src/assets/Member.svg

<svg width="28" height="28" viewBox="0 0 28 28" fill="none" xmlns="http://www.w3.org/2000/svg">
<path d="M1.1663 7.00012C1.81088 7.00012 2.33297 6.47804 2.33297 5.83346V2.33346H5.83297C6.47755 2.33346 6.99963 1.81137 6.99963 1.16679C6.99963 0.522205 6.47755 0.00012207 5.83297 0.00012207H2.33297C1.0438 0.00012207 -0.000366211 1.04429 -0.000366211 2.33346V5.83346C-0.000366211 6.47804 0.521717 7.00012 1.1663 7.00012Z" fill="#999999"/>
<path d="M2.33297 28.0001H5.83297C6.47755 28.0001 6.99963 27.478 6.99963 26.8335C6.99963 26.1889 6.47755 25.6668 5.83297 25.6668H2.33297V22.1668C2.33297 21.5222 1.81088 21.0001 1.1663 21.0001C0.521717 21.0001 -0.000366211 21.5222 -0.000366211 22.1668V25.6668C-0.000366211 26.956 1.0438 28.0001 2.33297 28.0001Z" fill="#999999"/>
<path d="M27.9996 25.6668V22.1668C27.9996 21.5222 27.4775 21.0001 26.833 21.0001C26.1884 21.0001 25.6663 21.5222 25.6663 22.1668V25.6668H22.1663C21.5217 25.6668 20.9996 26.1889 20.9996 26.8335C20.9996 27.478 21.5217 28.0001 22.1663 28.0001H25.6663C26.9555 28.0001 27.9996 26.956 27.9996 25.6668Z" fill="#999999"/>
<path d="M22.1663 0.00012207C21.5217 0.00012207 20.9996 0.522205 20.9996 1.16679C20.9996 1.81137 21.5217 2.33346 22.1663 2.33346H25.6663V5.83346C25.6663 6.47804 26.1884 7.00012 26.833 7.00012C27.4775 7.00012 27.9996 6.47804 27.9996 5.83346V2.33346C27.9996 1.04429 26.9555 0.00012207 25.6663 0.00012207H22.1663Z" fill="#999999"/>
<path d="M6.99963 19.8335C6.99963 20.478 7.52172 21.0001 8.1663 21.0001C8.81088 21.0001 9.33297 20.478 9.33297 19.8335C9.33297 17.2551 11.4213 15.1668 13.9996 15.1668C16.578 15.1668 18.6663 17.2551 18.6663 19.8335C18.6663 20.478 19.1884 21.0001 19.833 21.0001C20.4776 21.0001 20.9996 20.478 20.9996 19.8335C20.9996 17.2843 19.6084 14.9364 17.3742 13.7085C19.1534 11.8447 19.0863 8.89012 17.2225 7.11095C15.3588 5.33179 12.4042 5.39887 10.6251 7.26262C8.9013 9.06512 8.9013 11.906 10.6251 13.7085C8.39088 14.9364 7.00255 17.2843 6.99963 19.8335ZM11.6663 10.5001C11.6663 9.21095 12.7105 8.16679 13.9996 8.16679C15.2888 8.16679 16.333 9.21095 16.333 10.5001C16.333 11.7893 15.2888 12.8335 13.9996 12.8335C12.7105 12.8335 11.6663 11.7893 11.6663 10.5001Z" fill="#999999"/>
</svg>

<svg xmlns="http://www.w3.org/2000/svg" width="28" height="28" fill="none"><path fill="#999" d="M1.166 7c.645 0 1.167-.522 1.167-1.167v-3.5h3.5a1.166 1.166 0 1 0 0-2.333h-3.5A2.333 2.333 0 0 0 0 2.333v3.5C0 6.478.522 7 1.166 7M2.333 28h3.5a1.166 1.166 0 1 0 0-2.333h-3.5v-3.5a1.166 1.166 0 1 0-2.333 0v3.5A2.333 2.333 0 0 0 2.333 28M28 25.667v-3.5a1.166 1.166 0 1 0-2.334 0v3.5h-3.5a1.166 1.166 0 1 0 0 2.333h3.5A2.333 2.333 0 0 0 28 25.667M22.166 0a1.166 1.166 0 1 0 0 2.333h3.5v3.5a1.166 1.166 0 1 0 2.334 0v-3.5A2.333 2.333 0 0 0 25.666 0zM7 19.834a1.166 1.166 0 1 0 2.333 0A4.665 4.665 0 0 1 14 15.167a4.665 4.665 0 0 1 4.666 4.667 1.166 1.166 0 1 0 2.334 0 6.99 6.99 0 0 0-3.626-6.125 4.667 4.667 0 1 0-6.749 0A7 7 0 0 0 7 19.834m4.666-9.334a2.333 2.333 0 1 1 4.666-.001 2.333 2.333 0 0 1-4.666.001"/></svg>
